images/dank-logo.svg

<svg height="250" viewBox="0 0 250 250" width="250" xmlns="http://www.w3.org/2000/svg"><path d="m90.25 55.582031 31.640625 66.058594 48.914063-59.613281c-24.75-15.222656-54.609376-18.054688-80.554688-6.445313zm0 0" fill="#ff7f66"/><path d="m90.25 55.582031c-3.972656 1.777344-7.859375 3.890625-11.609375 6.363281-16.667969 10.914063-31.945313 28.5-36.917969 48.609376l80.167969 11.085937zm0 0" fill="#ffc54a"/><path d="m41.695312 110.554688c-3.667968 14.777343-1.777343 30.945312 9.222657 46.835937 3.472656 5.027344 7.386719 9.75 11.636719 14.136719l59.335937-49.886719zm0 0" fill="#ff905b"/><path d="m62.554688 171.527344c24.417968 25.167968 60.167968 38.332031 89.945312 24.304687l-30.609375-74.191406zm0 0" fill="#ff5d6c"/><path d="m152.5 195.832031c3.777344-1.777343 7.445312-3.972656 10.972656-6.636719 23.527344-17.777343 39.527344-36.695312 44.695313-55.890624l-86.308594-11.664063zm0 0" fill="#ffc54a"/><path d="m208.195312 133.304688c4.386719-16.304688 1-32.832032-12.222656-49.082032-7.363281-9.054687-15.917968-16.472656-25.167968-22.167968l-48.914063 59.585937zm0 0" fill="#ff9024"/><path d="m139.417969 73.332031c28.582031 2.945313 37.027343 27.195313 32.277343 61.222657-3.972656 28.472656-36.027343 41.140624-64.304687 35.972656-28.28125-5.167969-34.613281-33.554688-30.167969-54.859375 5.777344-27.640625 32.277344-45.417969 62.195313-42.335938zm0 0" fill="#360053"/><g fill="#c74dff"><path d="m174.195312 162.917969-7.304687-15.417969c-4.890625.25-10.390625.109375-10.835937-3.667969-.472657-3.832031 2.945312-5.914062 8.722656-6.027343l-.859375-4.582032-1.917969-10.027344c-8.359375 1.386719-17.359375 5.222657-18.667969 15.695313l-2.941406-14.222656-14.53125-2 3.140625 16.386719 4.640625 24.640624h.109375c7.832031.5 14.359375-.417968 14.609375-.472656l-2.332031-11.304687c3.5 8.441406 22.054687 10.164062 28.167968 11zm0 0"/><path d="m85.722656 149.527344c1.195313-12.136719 5.886719-27.222656 21.886719-26.859375 13.113281.304687 17.167969 10.832031 18.308594 20.222656.5 4.164063.191406 10.441406-.363281 15.582031l-14.777344 2.027344.804687-15.417969c.25-6.277343-2.414062-9.804687-6.441406-9.441406-4.25.359375-7 4.664063-6.945313 12.636719l-.25 14-12.890624 1.777344c-.027344-.25-.109376-6.609376.667968-14.527344zm0 0"/><path d="m163.890625 104.195312c-1.195313-12.140624-5.890625-27.222656-21.890625-26.863281-13.109375.308594-17.167969 10.835938-18.304688 20.222657-.5 4.167968-.195312 10.445312.359376 15.585937l14.777343 2.027344-.304687-5.917969c3.972656.75 9.777344 1.75 13.054687 2.332031l.085938 5.363281 12.886719 1.777344c.027343-.222656.113281-6.582031-.664063-14.527344zm-25.808594-3.304687-.054687-1.140625c-.25-6.277344 2.417968-9.804688 6.445312-9.445312 4.25.363281 7 4.667968 6.945313 12.640624v.359376c-2.945313-.554688-9.667969-1.832032-13.335938-2.414063zm0 0"/><path d="m87.695312 120.027344c4.636719.277344 9.582032.195312 14.5-.5 9.277344-1.332032 19.414063-6.167969 19.054688-19.136719-.445312-15.835937-15.609375-19.695313-27.667969-20.25-7.886719-.363281-14.441406.664063-14.691406.71875 0 0-1.890625.058594-1.890625.058594zm11.304688-15.195313-4.027344-12.886719c7.609375-.5 12.75 2.472657 13.332032 6.636719.554687 3.972657-3.109376 6.167969-9.304688 6.25zm0 0"/></g></svg>

<!-- Generator: Adobe Illustrator 21.1.0, SVG Export Plug-In . SVG Version: 6.00 Build 0)  -->
<svg xmlns="http://www.w3.org/2000/svg" xmlns:xlink="http://www.w3.org/1999/xlink" width="250px" height="250px" viewBox="0 0 250 250" version="1.1">
<g id="surface1">
<path style=" stroke:none;fill-rule:nonzero;fill:rgb(100%,49.803922%,40.000001%);fill-opacity:1;" d="M 90.25 55.582031 L 121.890625 121.640625 L 170.804688 62.027344 C 146.054688 46.804688 116.195312 43.972656 90.25 55.582031 Z M 90.25 55.582031 "/>
<path style=" stroke:none;fill-rule:nonzero;fill:rgb(100%,77.254903%,29.019609%);fill-opacity:1;" d="M 90.25 55.582031 C 86.277344 57.359375 82.390625 59.472656 78.640625 61.945312 C 61.972656 72.859375 46.695312 90.445312 41.722656 110.554688 L 121.890625 121.640625 Z M 90.25 55.582031 "/>
<path style=" stroke:none;fill-rule:nonzero;fill:rgb(100%,56.470591%,35.686275%);fill-opacity:1;" d="M 41.695312 110.554688 C 38.027344 125.332031 39.917969 141.5 50.917969 157.390625 C 54.390625 162.417969 58.304688 167.140625 62.554688 171.527344 L 121.890625 121.640625 Z M 41.695312 110.554688 "/>
<path style=" stroke:none;fill-rule:nonzero;fill:rgb(100%,36.470589%,42.352942%);fill-opacity:1;" d="M 62.554688 171.527344 C 86.972656 196.695312 122.722656 209.859375 152.5 195.832031 L 121.890625 121.640625 Z M 62.554688 171.527344 "/>
<path style=" stroke:none;fill-rule:nonzero;fill:rgb(100%,77.254903%,29.019609%);fill-opacity:1;" d="M 152.5 195.832031 C 156.277344 194.054688 159.945312 191.859375 163.472656 189.195312 C 187 171.417969 203 152.5 208.167969 133.304688 L 121.859375 121.640625 Z M 152.5 195.832031 "/>
<path style=" stroke:none;fill-rule:nonzero;fill:rgb(100%,56.470591%,14.117648%);fill-opacity:1;" d="M 208.195312 133.304688 C 212.582031 117 209.195312 100.472656 195.972656 84.222656 C 188.609375 75.167969 180.054688 67.75 170.804688 62.054688 L 121.890625 121.640625 Z M 208.195312 133.304688 "/>
<path style=" stroke:none;fill-rule:nonzero;fill:rgb(21.176471%,0%,32.549021%);fill-opacity:1;" d="M 139.417969 73.332031 C 168 76.277344 176.445312 100.527344 171.695312 134.554688 C 167.722656 163.027344 135.667969 175.695312 107.390625 170.527344 C 79.109375 165.359375 72.777344 136.972656 77.222656 115.667969 C 83 88.027344 109.5 70.25 139.417969 73.332031 Z M 139.417969 73.332031 "/>
<path style=" stroke:none;fill-rule:nonzero;fill:rgb(78.039217%,30.19608%,100%);fill-opacity:1;" d="M 174.195312 162.917969 L 166.890625 147.5 C 162 147.75 156.5 147.609375 156.054688 143.832031 C 155.582031 140 159 137.917969 164.777344 137.804688 L 163.917969 133.222656 L 162 123.195312 C 153.640625 124.582031 144.640625 128.417969 143.332031 138.890625 L 140.390625 124.667969 L 125.859375 122.667969 L 129 139.054688 L 133.640625 163.695312 C 133.667969 163.695312 133.722656 163.695312 133.75 163.695312 C 141.582031 164.195312 148.109375 163.277344 148.359375 163.222656 L 146.027344 151.917969 C 149.527344 160.359375 168.082031 162.082031 174.195312 162.917969 Z M 174.195312 162.917969 "/>
<path style=" stroke:none;fill-rule:nonzero;fill:rgb(78.039217%,30.19608%,100%);fill-opacity:1;" d="M 85.722656 149.527344 C 86.917969 137.390625 91.609375 122.304688 107.609375 122.667969 C 120.722656 122.972656 124.777344 133.5 125.917969 142.890625 C 126.417969 147.054688 126.109375 153.332031 125.554688 158.472656 L 110.777344 160.5 L 111.582031 145.082031 C 111.832031 138.804688 109.167969 135.277344 105.140625 135.640625 C 100.890625 136 98.140625 140.304688 98.195312 148.277344 L 97.945312 162.277344 L 85.054688 164.054688 C 85.027344 163.804688 84.945312 157.445312 85.722656 149.527344 Z M 85.722656 149.527344 "/>
<path style=" stroke:none;fill-rule:nonzero;fill:rgb(78.039217%,30.19608%,100%);fill-opacity:1;" d="M 163.890625 104.195312 C 162.695312 92.054688 158 76.972656 142 77.332031 C 128.890625 77.640625 124.832031 88.167969 123.695312 97.554688 C 123.195312 101.722656 123.5 108 124.054688 113.140625 L 138.832031 115.167969 L 138.527344 109.25 C 142.5 110 148.304688 111 151.582031 111.582031 L 151.667969 116.945312 L 164.554688 118.722656 C 164.582031 118.5 164.667969 112.140625 163.890625 104.195312 Z M 138.082031 100.890625 L 138.027344 99.75 C 137.777344 93.472656 140.445312 89.945312 144.472656 90.304688 C 148.722656 90.667969 151.472656 94.972656 151.417969 102.945312 L 151.417969 103.304688 C 148.472656 102.75 141.75 101.472656 138.082031 100.890625 Z M 138.082031 100.890625 "/>
<path style=" stroke:none;fill-rule:nonzero;fill:rgb(78.039217%,30.19608%,100%);fill-opacity:1;" d="M 87.695312 120.027344 C 92.332031 120.304688 97.277344 120.222656 102.195312 119.527344 C 111.472656 118.195312 121.609375 113.359375 121.25 100.390625 C 120.804688 84.554688 105.640625 80.695312 93.582031 80.140625 C 85.695312 79.777344 79.140625 80.804688 78.890625 80.859375 C 78.890625 80.859375 77 80.917969 77 80.917969 Z M 99 104.832031 L 94.972656 91.945312 C 102.582031 91.445312 107.722656 94.417969 108.304688 98.582031 C 108.859375 102.554688 105.195312 104.75 99 104.832031 Z M 99 104.832031 "/>
</g>
</svg>
